X: 26998
T: Miss Falconer's
R: strathspey
M: 4/4
K: Eminor
|:E>FG>A B>B,B,>B,|E>FG>F E>^D E2|c>A G/F/G/A/ B>G E2|AB/c/ (B/^d/).e/.A/ G/F/B/B,/ E2:|
|:g>gB>^d e=d/c/ B2|A>c (B/A/)(G/F/) (G/E/).G/.^d/ e2|g>gB>e e/d/c/B/ AB/c/|(B/G/F/A/) (G/E/)B/^d/ e>E E2:|

